!!!id: 16xx:886
!!!COM: Goudimel, Claude
!!!OTL: Missa Audi Filia – Agnus Dei
!!!PDT:
!!!SMS-siglum: PL-Kk
!!!SMS-shelfmark: Kk.I.7
!!!NIFC-rismID: 300258132
!!!URL-scan: http://repozytorium.nifc.pl/skany/pl-kk-nut--i-7
!!!ONB-nifc: UWAGA: C (skan 0052-0054, s.97-100), A (0136-0137, s.93-95), T(0213-0214, s.88-91), B(0300-0301, s.87-89). Części Mszy: 1. Kyrie, 2. Et in terra, 3. Sanctus, 4. Agnus. „Agnus II" rozpisane na 5 głosów. Dodatkowy głos zapisany w księdze T na stronie 91
!!!SMS-variant:
!!!SMS-altvar:
**kern	**text	**kern	**text	**kern	**text	**kern	**text	**kern	**text
*part5	*part5	*part4	*part4	*part3	*part3	*part2	*part2	*part1	*part1
*staff5	*staff5	*staff4	*staff4	*staff3	*staff3	*staff2	*staff2	*staff1	*staff1
*I"BASSVS.	*	*I"TENOR. 2do.	*	*I"TENOR. 1mo.	*	*I"ALTVS.	*	*I"CANTVS.	*
*I'B	*	*I'T 2	*	*I'T 1	*	*I'A	*	*I'S	*
*clefF3	*	*clefC3	*	*clefC3	*	*clefC2	*	*clefG2	*
*k[b-]	*	*k[b-]	*	*k[b-]	*	*k[b-]	*	*k[b-]	*
*M2/1	*	*M2/1	*	*M2/1	*	*M2/1	*	*M2/1	*
*met(c|)	*	*met(c|)	*	*met(c|)	*	*met(c|)	*	*met(c|)	*
=1	=1	=1	=1	=1	=1	=1	=1	=1	=1
!LO:TX:t=P:problem:kreska pseudotaktowa	!	!	!	!	!	!	!	!	!
!LO:TX:t=P:problem:bemole:BB-, B- (jeden nad drugim)	!	!	!	!	!	!LO:TX:t=P:problem:bemole:B-, b- (jeden nad drugim)	!	!	!
00r	.	0ryy	.	1r	.	00r	.	0cc\	A-
.	.	.	.	0f\	A-	.	.	.	.
=2-	=2-	=2-	=2-	=2-	=2-	=2-	=2-	=2-	=2-
.	.	0ryy	.	.	.	.	.	1a/	-gnus
!	!	!	!	!LO:TX:t=P:problem:kreska pseudotaktowa	!	!	!	!	!
.	.	.	.	1d\	-gnus	.	.	2b-/	.
.	.	.	.	.	.	.	.	1a/	De-
=3-	=3-	=3-	=3-	=3-	=3-	=3-	=3-	=3-	=3-
0c\	A-	0ryy	.	1.e\	De-	00r	.	.	.
.	.	.	.	.	.	.	.	4g/	.
.	.	.	.	.	.	.	.	4f/	.
.	.	.	.	.	.	.	.	1g/	.
*	*	*	*	*2\right	*	*	*	*	*
.	.	.	.	2d\	.	.	.	.	.
=4-	=4-	=4-	=4-	=4-	=4-	=4-	=4-	=4-	=4-
!LO:TX:t=P:problem:kreska pseudotaktowa	!	!	!	!	!	!	!	!	!
1A\	-gnus	0ryy	.	2c\	.	.	.	2.a/	.
.	.	.	.	2f\	.	.	.	.	.
.	.	.	.	.	.	.	.	4g/	.
1.B-\	De-	.	.	2d\	-i	.	.	4f/	.
.	.	.	.	.	.	.	.	4d/	.
.	.	.	.	2.f\	A-	.	.	1dd\	.
=5-	=5-	=5-	=5-	=5-	=5-	=5-	=5-	=5-	=5-
!	!	!	!	!	!	!LO:TX:t=P:problem:kreska pseudotaktowa	!	!	!
.	.	0ryy	.	.	.	1r	.	.	.
.	.	.	.	4e\	.	.	.	.	.
!	!	!	!	!LO:TX:t=P:problem:kreska pseudotaktowa	!	!	!	!	!
*2\right	*	*	*	*	*	*	*	*	*
2A\	.	.	.	2c\	.	.	.	1cc\	.
1G\	.	.	.	1d\	-gn(us)	0g\	A-	.	.
*	*	*	*	*	*	*	*	*2\right	*
.	.	.	.	.	.	.	.	2b-\	.
=6-	=6-	=6-	=6-	=6-	=6-	=6-	=6-	=6-	=6-
!LO:TX:t=P:problem:kreska pseudotaktowa	!	!	!	!	!	!	!	!LO:TX:t=P:problem:kreska pseudotaktowa	!
1C/	-i	0ryy	.	2c\	De-	.	.	0cc\	-i
.	.	.	.	2G/	.	.	.	.	.
*	*ij	*	*	*	*	*	*	*	*
1c\	A-	.	.	4A/	.	1e\	-gnus	.	.
.	.	.	.	4G/	.	.	.	.	.
.	.	.	.	4A/	.	.	.	.	.
.	.	.	.	4B-/	.	.	.	.	.
=7-	=7-	=7-	=7-	=7-	=7-	=7-	=7-	=7-	=7-
2A\	.	0ryy	.	2c\	.	1.f\	De-	1r	.
1B-\	.	.	.	1d\	.	.	.	.	.
.	.	.	.	.	.	.	.	0g/	A-
!LO:TX:t=P:problem:kreska pseudotaktowa	!	!	!	!	!	!	!	!	!
2c\	.	.	.	1c\	.	2e/	.	.	.
=8-	=8-	=8-	=8-	=8-	=8-	=8-	=8-	=8-	=8-
*	*	*	*	*	*	*lig	*	*	*
1G\	-gnus	0ryy	.	.	.	1d/	-i	.	.
!	!	!	!	!LO:TX:t=P:problem:kreska pseudotaktowa	!	!	!	!	!
.	.	.	.	2B-/	.	.	.	.	.
!	!	!	!	!LO:TX:t=P:problem:cezura na 3. linii	!	!LO:TX:t=P:problem:kreska pseudotaktowa	!	!	!
2.A\	De-	.	.	2c,</	-i	1c/	.	1e/	-gn(us)
*	*	*	*	*	*ij	*	*	*	*
.	.	.	.	2.A/	A-	.	.	.	.
4G\	.	.	.	.	.	.	.	.	.
*	*	*	*	*	*	*Xlig	*	*	*
=9-	=9-	=9-	=9-	=9-	=9-	=9-	=9-	=9-	=9-
4F/	.	0ryy	.	.	.	0r	.	1.f/	De-
4E/	.	.	.	4G/	-gn(us)	.	.	.	.
4D/	.	.	.	1d\	De-	.	.	.	.
4C/	.	.	.	.	.	.	.	.	.
2BB-/	.	.	.	.	.	.	.	.	.
!LO:TX:t=P:problem:kreska pseudotaktowa	!	!	!	!	!	!	!	!	!
!LO:TX:t=P:problem:cezura na 1. linii	!	!	!	!	!	!	!	!LO:TX:t=P:problem:kreska pseudotaktowa	!
2C,</	-i	.	.	1c\	.	.	.	2e/	.
=10-	=10-	=10-	=10-	=10-	=10-	=10-	=10-	=10-	=10-
*	*Xij	*	*	*	*	*	*ij	*	*
1G\	A-	0ryy	.	.	.	0g\	A-	1d/	.
!	!	!	!	!LO:TX:t=P:problem:kreska pseudotaktowa	!	!	!	!	!
.	.	.	.	2B-/	.	.	.	.	.
!	!	!	!	!LO:TX:t=P:problem:kreska pseudotaktowa	!	!	!	!	!
2C/	-gnus	.	.	1c\	-i	.	.	4e/	.
*	*	*	*	*	*Xij	*	*	*	*
.	.	.	.	.	.	.	.	4d/	.
2.c\	De-	.	.	.	.	.	.	4e/	.
.	.	.	.	.	.	.	.	4f/	.
=11-	=11-	=11-	=11-	=11-	=11-	=11-	=11-	=11-	=11-
.	.	0ryy	.	2r	.	1e\	.	2g/	.
4B-\	.	.	.	.	.	.	.	.	.
4A\	.	.	.	2c\	A-	.	.	1cc\	.
!LO:TX:t=P:problem:kreska pseudotaktowa	!	!	!	!	!	!	!	!	!
4G\	.	.	.	.	.	.	.	.	.
4F/	.	.	.	2A/	-gnus	1.f\	-gnus	.	.
4E/	.	.	.	.	.	.	.	.	.
!LO:TX:t=P:problem:kreska pseudotaktowa	!	!	!	!	!	!	!	!	!
2D/	.	.	.	2d\	.	.	.	2b-\	.
=12-	=12-	=12-	=12-	=12-	=12-	=12-	=12-	=12-	=12-
!LO:TX:t=P:problem:cezura na 3. linii	!	!	!	!	!	!	!	!	!
2F,</	-i,	0ryy	.	2.c\	De-	.	.	2a/	.
*	*ij	*	*	*	*	*2\right	*	*	*
2C/	A-	.	.	.	.	2e\	.	2.g/	.
.	.	.	.	4B-/	.	.	.	.	.
*	*	*	*	*	*	*lig	*	*	*
2D/	.	.	.	2A/	.	1d/	De-	.	.
.	.	.	.	.	.	.	.	4f/	.
2BB-/	-gnus	.	.	2B-/	.	.	.	1f/	.
=13-	=13-	=13-	=13-	=13-	=13-	=13-	=13-	=13-	=13-
1C/	De-	0ryy	.	1G/	.	1c/	.	.	.
.	.	.	.	.	.	.	.	2e/	.
!	!	!	!	!	!	!	!	!LO:TX:t=P:problem:kreska pseudotaktowa	!
*	*	*	*	*	*	*Xlig	*	*	*
!LO:TX:t=P:problem:kreska pseudotaktowa	!	!	!	!	!	!	!	!	!
!LO:TX:a:t=4	!	!	!	!LO:TX:t=P:problem:kreska pseudotaktowa	!	!LO:TX:t=P:problem:kreska pseudotaktowa	!	!	!
00F\	-i	.	.	0F/	-i,	0c/	-i	2f/	-i
*	*Xij	*	*	*	*	*	*Xij	*	*
.	.	.	.	.	.	.	.	4r	.
.	.	.	.	.	.	.	.	4cc\	qui
=14-	=14-	=14-	=14-	=14-	=14-	=14-	=14-	=14-	=14-
.	.	0ryy	.	.	.	.	.	2cc\	tol-
.	.	.	.	.	.	.	.	2cc\	-lis
!	!	!	!	!LO:TX:t=P:problem:kreska pseudotaktowa	!	!	!	!	!
!	!	!	!	!LO:SIC:v:custos:f	!	!	!	!	!
.	.	.	.	00r	.	2r	.	2dd\	pec-
.	.	.	.	.	.	2f\	Qui	1cc\	-ca-
=15-	=15-	=15-	=15-	=15-	=15-	=15-	=15-	=15-	=15-
.	.	0ryy	.	.	.	2f\	tol-	.	.
!	!	!	!	!	!	!LO:TX:t=P:problem:kreska pseudotaktowa	!	!	!
.	.	.	.	.	.	2f\	-lis	2a/	-ta
2r	.	.	.	.	.	2g\	p(ec)-	4b-/	.
.	.	.	.	.	.	.	.	4a/	.
!LO:TX:t=P:problem:kreska pseudotaktowa	!	!	!	!	!	!	!	!	!
2B-\	qui	.	.	.	.	1f\	-c(a)-	4b-/	.
.	.	.	.	.	.	.	.	4cc/	.
=16-	=16-	=16-	=16-	=16-	=16-	=16-	=16-	=16-	=16-
2B-\	tol-	0ryy	.	.	.	.	.	4dd\	pec-
.	.	.	.	.	.	.	.	4cc\	.
!LO:TX:t=P:problem:kreska pseudotaktowa	!	!	!	!	!	!	!	!	!
2B-\	-lis	.	.	.	.	2d/	-ta	4b-/	.
.	.	.	.	.	.	.	.	4a/	.
2c\	p(ec)-	.	.	2r	.	2e/	mun-	2g/	-ca-
1B-\	.	.	.	2f\	Qui	4d/	.	1dd\	.
.	.	.	.	.	.	4c/	.	.	.
=17-	=17-	=17-	=17-	=17-	=17-	=17-	=17-	=17-	=17-
.	.	0ryy	.	2f\	tol-	2B-/	.	.	.
!	!	!	!	!	!	!	!	!LO:TX:t=P:problem:kreska pseudotaktowa	!
!	!	!	!	!	!	!	!	!LO:SIC:v:custos:b	!
2A\	-c(a)-	.	.	2f\	-lis	2c/	.	2cc\	.
!	!	!	!	!	!	!LO:TX:t=P:problem:kreska pseudotaktowa	!	!LO:LB:g=original	!
2G\	-ta	.	.	2g\	pec-	0d/	-di	2b-/	-ta
!LO:TX:t=P:problem:kreska pseudotaktowa	!	!	!	!	!	!	!	!	!
2A\	mun-	.	.	1f\	-ca-	.	.	2.a/	.
=18-	=18-	=18-	=18-	=18-	=18-	=18-	=18-	=18-	=18-
!LO:LB:g=original	!	!	!	!	!	!	!	!	!
2.B-\	.	0ryy	.	.	.	.	.	.	.
.	.	.	.	.	.	.	.	8g/L	.
.	.	.	.	.	.	.	.	8f/J	.
.	.	.	.	2d\	.	.	.	2g/	mun-
8A\L	.	.	.	.	.	.	.	.	.
8G\J	.	.	.	.	.	.	.	.	.
!	!	!	!	!	!	!	!	!LO:TX:t=P:problem:kreska pseudotaktowa	!
4F\	.	.	.	2.f\	-ta	1rb	.	0.a/	-di
4G\	.	.	.	.	.	.	.	.	.
2.A\	.	.	.	.	.	.	.	.	.
.	.	.	.	8e\L	.	.	.	.	.
!	!	!	!	!LO:TX:t=P:problem:kreska pseudotaktowa	!	!	!	!	!
.	.	.	.	8d\J	.	.	.	.	.
=19-	=19-	=19-	=19-	=19-	=19-	=19-	=19-	=19-	=19-
.	.	0ryy	.	2c\	mun-	2r	.	.	.
4G\	.	.	.	.	.	.	.	.	.
4F/	.	.	.	2.d\	.	2f\	qui	.	.
4E/	.	.	.	.	.	.	.	.	.
1D/	.	.	.	.	.	2f\	tol-	.	.
.	.	.	.	4c\	.	.	.	.	.
!	!	!	!	!	!	!LO:TX:t=P:problem:kreska pseudotaktowa	!	!	!
.	.	.	.	1f\	.	2f\	-lis	.	.
=20-	=20-	=20-	=20-	=20-	=20-	=20-	=20-	=20-	=20-
!LO:TX:t=P:problem:kreska pseudotaktowa	!	!	!	!	!	!	!	!	!
1C/	-di.	0ryy	.	.	.	1g\	pec-	2r	.
!	!	!	!	!LO:TX:t=P:problem:kreska pseudotaktowa	!	!	!	!	!
.	.	.	.	2e\	.	.	.	2cc\	qui
!	!	!	!	!LO:TX:t=P:problem:cezura na 4. linii	!	!	!	!	!
00r	.	.	.	2f,<\	-di	1a\	.	2cc\	tol-
!	!	!	!	!	!	!	!	!LO:TX:t=P:problem:kreska pseudotaktowa	!
*	*	*	*	*	*ij	*	*	*	*
.	.	.	.	2F/	Qui	.	.	2cc\	-lis
=21-	=21-	=21-	=21-	=21-	=21-	=21-	=21-	=21-	=21-
.	.	0ryy	.	2B-/	tol-	2f\	-ca-	2dd\	.
.	.	.	.	2A/	.	1a\	-ta	1cc\	pec-
.	.	.	.	2F/	-lis	.	.	.	.
!	!	!	!	!	!	!	!	!LO:TX:t=P:problem:kreska pseudotaktowa	!
.	.	.	.	2G/	pec-	4g\	.	2b-\	.
.	.	.	.	.	.	4f\	.	.	.
=22-	=22-	=22-	=22-	=22-	=22-	=22-	=22-	=22-	=22-
.	.	0ryy	.	2A/	-ca-	4e\	.	2cc\	-ca-
.	.	.	.	.	.	4f\	.	.	.
.	.	.	.	2B-/	.	2.g\	.	2b-\	.
!LO:TX:t=P:problem:kreska pseudotaktowa	!	!	!	!	!	!	!	!	!
1r	.	.	.	2c\	.	.	.	2.a/	.
.	.	.	.	.	.	4f\	.	.	.
.	.	.	.	2d\	-ta	1f\	.	.	.
.	.	.	.	.	.	.	.	8g/L	.
.	.	.	.	.	.	.	.	8f/J	.
=23-	=23-	=23-	=23-	=23-	=23-	=23-	=23-	=23-	=23-
2r	.	0ryy	.	1c\	mun-	.	.	1g/	.
!	!	!	!	!	!	!LO:TX:t=P:problem:kreska pseudotaktowa	!	!	!
1c\	mi-	.	.	.	.	2e\	.	.	.
!	!	!	!	!LO:TX:t=P:problem:kreska pseudotaktowa	!	!LO:LB:g=original	!	!	!
.	.	.	.	0F/	-di	2.f\	mun-	2f/	.
*	*	*	*	*	*Xij	*	*	*	*
!LO:TX:t=P:problem:kreska pseudotaktowa	!	!	!	!	!	!	!	!	!
2A\	-ſe-	.	.	.	.	.	.	1cc\	.
.	.	.	.	.	.	8e/L	.	.	.
.	.	.	.	.	.	8d/J	.	.	.
=24-	=24-	=24-	=24-	=24-	=24-	=24-	=24-	=24-	=24-
!	!	!	!	!	!	!LO:TX:t=P:problem:kreska pseudotaktowa	!	!	!
1A\	-re-	0ryy	.	.	.	0c/	-di,	.	.
!	!	!	!	!	!	!	!	!LO:TX:t=P:problem:kreska pseudotaktowa	!
.	.	.	.	.	.	.	.	2a/	-ta
2.F\	-re	.	.	2r	.	.	.	1.a/	mun-
.	.	.	.	1f\	mi-	.	.	.	.
4G\	.	.	.	.	.	.	.	.	.
=25-	=25-	=25-	=25-	=25-	=25-	=25-	=25-	=25-	=25-
2A\	.	0ryy	.	.	.	2r	.	.	.
2B-\	.	.	.	2d\	-ſe-	1f\	mi-	2f/	.
!LO:TX:t=P:problem:kreska pseudotaktowa	!	!	!	!	!	!	!	!	!
1G\	no-	.	.	2d\	-re-	.	.	1b-\	.
.	.	.	.	2B-/	-re	2e\	-ſe-	.	.
=26-	=26-	=26-	=26-	=26-	=26-	=26-	=26-	=26-	=26-
!LO:TX:t=P:problem:cezura na 2. linii	!	!	!	!	!	!	!	!LO:TX:t=P:problem:kreska pseudotaktowa	!
2F,</	-bis	0ryy	.	2d\	no-	1f\	-re-	0a/	-di
!	!	!	!	!LO:TX:t=P:problem:kreska pseudotaktowa	!	!	!	!	!
*	*ij	*	*	*	*	*	*	*	*
1F\	mi-	.	.	2c\	-bis	.	.	.	.
.	.	.	.	2r	.	2c/	-re	.	.
*	*	*	*	*	*ij	*	*	*	*
2D/	-ſe-	.	.	1f\	mi-	2d/	no-	.	.
=27-	=27-	=27-	=27-	=27-	=27-	=27-	=27-	=27-	=27-
!	!	!	!	!	!	!LO:TX:t=P:problem:kreska pseudotaktowa	!	!	!
1D/	-re-	0ryy	.	.	.	1A/	-bis	2r	.
.	.	.	.	2d\	-ſe-	.	.	1ff\	mi-
!	!	!	!	!LO:TX:t=P:problem:kreska pseudotaktowa	!	!	!	!	!
0BB-/	.	.	.	1d\	-re-	2r	.	.	.
*	*	*	*	*	*	*	*ij	*	*
.	.	.	.	.	.	2f\	mi-	2dd\	-ſe-
=28-	=28-	=28-	=28-	=28-	=28-	=28-	=28-	=28-	=28-
.	.	0ryy	.	2.B-/	.	2d/	-ſe-	1dd\	-re-
.	.	.	.	.	.	1f\	-re-	.	.
.	.	.	.	4A/	.	.	.	.	.
1C/	.	.	.	1G/	.	.	.	1cc\	-re
!	!	!	!	!	!	!LO:TX:t=P:problem:kreska pseudotaktowa	!	!	!
.	.	.	.	.	.	2e\	.	.	.
=29-	=29-	=29-	=29-	=29-	=29-	=29-	=29-	=29-	=29-
2.D/	-re	0ryy	.	2F/	.	4f\	.	2a/	.
.	.	.	.	.	.	4g\	.	.	.
.	.	.	.	2.f\	-re	1a\	.	2.dd\	no-
4E/	.	.	.	.	.	.	.	.	.
2F\	.	.	.	.	.	.	.	.	.
.	.	.	.	4e\	.	.	.	4cc\	.
2G\	.	.	.	4d\	.	2.g\	.	2.b-\	.
.	.	.	.	4c\	.	.	.	.	.
=30-	=30-	=30-	=30-	=30-	=30-	=30-	=30-	=30-	=30-
2D/	.	0ryy	.	2d\	no-	.	.	.	.
.	.	.	.	.	.	4f\	.	4a/	.
!	!	!	!	!LO:TX:t=P:problem:kreska pseudotaktowa	!	!	!	!	!
2F/	no-	.	.	2c\	-bis	1f\	-re	4a/	.
*	*	*	*	*	*Xij	*	*	*	*
.	.	.	.	.	.	.	.	8g/L	.
.	.	.	.	.	.	.	.	8f/J	.
!LO:TX:t=P:problem:kreska pseudotaktowa	!	!	!	!LO:TX:t=1mo.\nà 5. Vocib(us)	!	!	!	!	!
!	!	!	!	!LO:LB:g=original	!	!	!	!	!
1C/	-bis	.	.	2r	.	.	.	2g/	.
*	*Xij	*	*	*	*	*	*	*	*
.	.	.	.	1c\	mi-	4e/	.	2a/	.
.	.	.	.	.	.	4d/	.	.	.
=31-	=31-	=31-	=31-	=31-	=31-	=31-	=31-	=31-	=31-
2r	.	0ryy	.	.	.	2e/	no-	2g,</	-bis
!	!	!	!	!	!	!LO:TX:t=P:problem:kreska pseudotaktowa	!	!	!
1F\	mi-	.	.	2A/	-ſe-	2c/	-bis	2cc\	mi-
*	*	*	*	*	*	*	*Xij	*	*
.	.	.	.	1A/	-re-	2r	.	2a/	-ſe-
2D/	-ſe-	.	.	.	.	1f\	mi-	1a/	-re-
=32-	=32-	=32-	=32-	=32-	=32-	=32-	=32-	=32-	=32-
!	!	!	!	!LO:TX:t=P:problem:kreska pseudotaktowa	!	!	!	!	!
1D/	-re-	0ryy	.	1F/	-re	.	.	.	.
.	.	.	.	.	.	2d/	-ſe-	1f/	-re
2BB-/	-re	.	.	2.B-/	no-	2d/	-re-	.	.
!	!	!	!	!	!	!	!	!LO:TX:t=P:problem:kreska pseudotaktowa:między nutą a kropką	!
2E-X/	no-	.	.	.	.	2B-/	-re	2.g/	no-
.	.	.	.	8A/L	.	.	.	.	.
.	.	.	.	8G/J	.	.	.	.	.
=33-	=33-	=33-	=33-	=33-	=33-	=33-	=33-	=33-	=33-
*	*	*	*	*	*	*lig	*	*	*
2D/	.	0ryy	.	2A/	.	1d/	no-	.	.
.	.	.	.	.	.	.	.	4f/	.
2BB-/	.	.	.	2B-/	.	.	.	1f/	.
1C/	.	.	.	1G/	.	1c/	.	.	.
.	.	.	.	.	.	.	.	2e/	.
*	*	*	*	*	*	*Xlig	*	*	*
=34-	=34-	=34-	=34-	=34-	=34-	=34-	=34-	=34-	=34-
!	!	!	!	!	!	!	!	!LO:TX:b:i:t=Vertat(ur)	!
0F\;	-bis.	0ryy	.	0A/;	-bis.	0c/;	-bis.	0f/;	-bis.
=35||	=35||	=35||	=35||	=35||	=35||	=35||	=35||	=35||	=35||
*M2/1	*	*M2/1	*	*M2/1	*	*M2/1	*	*M2/1	*
*met(c|)	*	*met(c|)	*	*met(c|)	*	*met(c|)	*	*met(c|)	*
!LO:PB:g=original	!	!	!	!	!	!LO:TX:t=P:problem:kreska pseudotaktowa	!	!LO:PB:g=original	!
!LO:TX:t=P:problem:kreska pseudotaktowa	!	!	!	!	!	!	!	!	!
00r	.	00r	.	0r	.	1rb	.	1.cc\	A-
.	.	.	.	.	.	1.f\	A-	.	.
.	.	.	.	.	.	.	.	2dd\	-gn(us)
=36-	=36-	=36-	=36-	=36-	=36-	=36-	=36-	=36-	=36-
!	!	!	!	!LO:TX:t=P:problem:kreska pseudotaktowa	!	!	!	!	!
.	.	.	.	1r	.	.	.	2cc\	De-
.	.	.	.	.	.	2g\	-gn(us)	2b-\	.
!	!	!	!	!	!	!	!	!LO:TX:t=P:problem:kreska pseudotaktowa	!
.	.	.	.	2r	.	2f\	De-	1cc\	-i
.	.	.	.	1c\	A-	2e\	.	.	.
=37-	=37-	=37-	=37-	=37-	=37-	=37-	=37-	=37-	=37-
!	!	!LO:TX:t=P:problem:kreska pseudotaktowa	!	!	!	!LO:TX:t=P:problem:kreska pseudotaktowa	!	!	!
1.F\	A-	00r	.	.	.	1f\	-i	2r	.
.	.	.	.	2d\	-gnus	.	.	1a/	A-
.	.	.	.	2c/	.	2r	.	.	.
!LO:TX:t=P:problem:kreska pseudotaktowa	!	!	!	!	!	!	!	!	!
*	*	*	*	*	*	*	*ij	*	*
2G\	-gnus	.	.	2B-/	De-	2d/	A-	2b-/	.
=38-	=38-	=38-	=38-	=38-	=38-	=38-	=38-	=38-	=38-
2F\	De-	.	.	2.c/	.	2f\	.	2a/	-gnus
!	!	!	!	!	!	!	!	!LO:TX:t=P:problem:kreska pseudotaktowa	!
2E/	.	.	.	.	.	2.g\	-gn(us)	2g/	.
.	.	.	.	4B-/	.	.	.	.	.
2.F/	.	.	.	2A/	.	.	.	2.a/	A-
.	.	.	.	.	.	4f\	.	.	.
.	.	.	.	2F/	.	1f\	De-	.	.
8E/L	.	.	.	.	.	.	.	4b-/	.
8D/J	.	.	.	.	.	.	.	.	.
=39-	=39-	=39-	=39-	=39-	=39-	=39-	=39-	=39-	=39-
!LO:TX:t=P:problem:kreska pseudotaktowa	!	!	!	!	!	!	!	!	!
1C/	.	2r	.	1G/	.	.	.	2.cc\	.
.	.	1c\	A-	.	.	2e\	.	.	.
.	.	.	.	.	.	.	.	4b-/	.
!	!	!	!	!LO:TX:t=P:problem:kreska pseudotaktowa	!	!LO:TX:t=P:problem:kreska pseudotaktowa	!	!	!
2.F\	.	.	.	1A/	-i	0.f\	-i	4a/	.
*	*	*2\right	*	*	*	*	*Xij	*	*
.	.	.	.	.	.	.	.	4f/	.
.	.	2d\	-gnus	.	.	.	.	2.ff\	.
4G\	.	.	.	.	.	.	.	.	.
=40-	=40-	=40-	=40-	=40-	=40-	=40-	=40-	=40-	=40-
2A\	.	2c\	De-	1r	.	.	.	.	.
.	.	.	.	.	.	.	.	4ee\	.
2B-\	.	2B-/	.	.	.	.	.	1dd\	.
!LO:TX:t=P:problem:kreska pseudotaktowa	!	!	!	!	!	!	!	!	!
1F\	-i	2.c\	.	2r	.	.	.	.	.
.	.	.	.	1c\	A-	.	.	2.cc\	.
.	.	4d\	.	.	.	.	.	.	.
=41-	=41-	=41-	=41-	=41-	=41-	=41-	=41-	=41-	=41-
2r	.	2e\	.	.	.	0r	.	.	.
.	.	.	.	.	.	.	.	4b-/	.
*	*ij	*	*	*	*	*	*	*	*
1F\	A-	1f\	.	2d\	-gnus	.	.	1a/	.
.	.	.	.	2c\	.	.	.	.	.
!	!	!	!	!	!	!	!	!LO:TX:t=P:problem:kreska pseudotaktowa	!
2G\	.	2e\	.	2B-/	De-	.	.	2g/	-gnus
=42-	=42-	=42-	=42-	=42-	=42-	=42-	=42-	=42-	=42-
!	!	!LO:TX:t=P:problem:kreska pseudotaktowa	!	!LO:TX:t=P:problem:kreska pseudotaktowa	!	!	!	!	!
2.F\	.	0f\	-i	1c\	.	2rc	.	1.a/	De-
.	.	.	.	.	.	1c/	A-	.	.
4E/	.	.	.	.	.	.	.	.	.
2F/	.	.	.	2A/	.	.	.	.	.
!	!	!	!	!	!	!LO:TX:t=P:problem:kreska pseudotaktowa	!	!	!
2BB-/	-gnus	.	.	4B-/	.	2d/	.	4g/	.
.	.	.	.	4A/	.	.	.	4f/	.
=43-	=43-	=43-	=43-	=43-	=43-	=43-	=43-	=43-	=43-
!	!	!	!	!	!	!LO:LB:g=original	!	!	!
2C/	De-	2re	.	2G/	.	2c/	.	2e/	.
!	!	!	!	!	!	!	!	!LO:TX:t=P:problem:kreska pseudotaktowa	!
*	*	*	*ij	*	*	*	*	*	*
2D/	.	1f\	A-	2F/	.	2B-/	.	2d/	-i.
!LO:TX:t=P:problem:kreska pseudotaktowa	!	!	!	!	!	!	!	!	!
1C/	-i	.	.	1G/	.	2.c/	.	2r	.
*	*Xij	*	*	*	*	*	*	*	*
.	.	2e\	.	.	.	.	.	2cc\	A-
.	.	.	.	.	.	4B-/	.	.	.
=44-	=44-	=44-	=44-	=44-	=44-	=44-	=44-	=44-	=44-
00r	.	2.f\	.	2.F/	.	2A/	-gnus	2dd\	.
.	.	.	.	.	.	2.a\	De-	1cc\	.
.	.	8e\L	.	4G/	.	.	.	.	.
.	.	8d\J	.	.	.	.	.	.	.
.	.	2c\	.	2A/	.	.	.	.	.
.	.	.	.	.	.	4g\	.	.	.
!	!	!	!	!	!	!	!	!LO:TX:t=P:problem:kreska pseudotaktowa	!
.	.	1d\	.	2B-/	.	4f\	.	2b-/	.
.	.	.	.	.	.	4e\	.	.	.
=45-	=45-	=45-	=45-	=45-	=45-	=45-	=45-	=45-	=45-
!	!	!	!	!	!	!LO:TX:t=P:problem:kreska pseudotaktowa	!	!	!
.	.	.	.	2F/	.	1f\	.	4a/	.
.	.	.	.	.	.	.	.	4g/	.
.	.	2c\	-gnus	2A/	.	.	.	1cc\	.
!	!	!	!	!LO:TX:t=P:problem:kreska pseudotaktowa	!	!LO:TX:t=P:problem:cezura na 4. linii	!	!	!
.	.	1d\	De-	1G/	-i	2g,<\	-i,	.	.
!	!	!	!	!	!	!	!	!LO:TX:t=P:problem:kreska pseudotaktowa	!
*	*	*	*	*	*	*	*ij	*	*
.	.	.	.	.	.	1g\	A-	2b-\	.
=46-	=46-	=46-	=46-	=46-	=46-	=46-	=46-	=46-	=46-
!	!	!LO:TX:t=P:problem:kreska pseudotaktowa	!	!LO:TX:t=P:problem:kreska pseudotaktowa	!	!	!	!	!
2rA	.	1e\	-i	00r	.	.	.	2.cc\	.
*	*	*	*Xij	*	*	*	*	*	*
1c\	A-	.	.	.	.	2a\	.	.	.
.	.	.	.	.	.	.	.	4dd\	.
!	!	!LO:TX:t=P:problem:kreska pseudotaktowa	!	!	!	!	!	!	!
!	!	!LO:SIC:v:custos:g	!	!	!	!	!	!	!
!	!	!LO:TX:b:t=2do.	!	!	!	!	!	!	!
.	.	1rg	.	.	.	2g\	.	2ee\	.
!LO:TX:t=P:problem:kreska pseudotaktowa	!	!	!	!	!	!	!	!	!
2d\	-gnus	.	.	.	.	2f\	.	2ff\	.
=47-	=47-	=47-	=47-	=47-	=47-	=47-	=47-	=47-	=47-
!	!	!LO:LB:g=original	!	!	!	!	!	!	!
2c\	De-	2re	.	.	.	2.g\	.	2ee\	.
2B-\	.	1g\	A-	.	.	.	.	1dd\	.
.	.	.	.	.	.	4f\	.	.	.
2c\	.	.	.	.	.	2e\	.	.	.
!LO:TX:t=P:problem:kreska pseudotaktowa	!	!	!	!	!	!	!	!	!
2F\	.	2a\	-gnus	.	.	2f\	-gnus	1cc\	.
=48-	=48-	=48-	=48-	=48-	=48-	=48-	=48-	=48-	=48-
!	!	!	!	!LO:LB:g=original	!	!	!	!	!
1G\	.	1g\	De-	2r	.	1d/	De-	.	.
!	!	!	!	!	!	!	!	!LO:TX:t=P:problem:kreska pseudotaktowa	!
*	*	*	*	*	*ij	*	*	*	*
.	.	.	.	1G/	A-	.	.	2b-\	gnus
!LO:TX:t=P:problem:kreska pseudotaktowa	!	!	!	!	!	!LO:TX:t=P:problem:kreska pseudotaktowa	!	!LO:LB:g=original	!
1C/	-i	2.e\	.	.	.	1c/	-i	2.cc\	De-
*	*	*	*	*	*	*	*Xij	*	*
.	.	.	.	2A/	.	.	.	.	.
.	.	8d\L	.	.	.	.	.	4a/	.
.	.	8c\J	.	.	.	.	.	.	.
=49-	=49-	=49-	=49-	=49-	=49-	=49-	=49-	=49-	=49-
1rc	.	4d\	.	2G/	.	0r	.	2b-/	.
.	.	4e\	.	.	.	.	.	.	.
.	.	1f\	.	2F/	-gnus	.	.	4a/	.
.	.	.	.	.	.	.	.	8g/L	.
.	.	.	.	.	.	.	.	8f/J	.
2rA	.	.	.	1c\	De-	.	.	1g/	.
!LO:TX:t=P:problem:kreska pseudotaktowa	!	!	!	!	!	!	!	!	!
2c\	Qui	2e\	.	.	.	.	.	.	.
=50-	=50-	=50-	=50-	=50-	=50-	=50-	=50-	=50-	=50-
!	!	!	!	!LO:TX:t=P:problem:kreska pseudotaktowa	!	!	!	!LO:TX:t=P:problem:cezura na 2. linii:global	!
2c\	tol-	0f\	.	1F/	-i	1r	.	2a,</	-i
*	*	*	*	*	*Xij	*	*	*	*
!LO:TX:t=P:problem:kreska pseudotaktowa	!	!	!	!	!	!	!	!	!
2A\	-lis	.	.	.	.	.	.	2cc\	qui
2B-\	p(ec)-	.	.	1r	.	2rc	.	2dd\	tol-
2d\	-c(a)-	.	.	.	.	2f\	Qui	2b-,<\	-lis
=51-	=51-	=51-	=51-	=51-	=51-	=51-	=51-	=51-	=51-
!	!	!	!	!	!	!	!	!LO:TX:t=P:problem:kreska pseudotaktowa	!
2c\	-ta	1g\	.	2r	.	2f\	tol-	1cc\	pec-
2c\	mun-	.	.	2c\	Qui	2e\	-lis	.	.
!LO:TX:t=P:problem:kreska pseudotaktowa	!	!LO:TX:t=P:problem:kreska pseudotaktowa	!	!	!	!	!	!	!
1F\	-di	1a\	-i	2c\	tol-	(2f\	p(ec)-	1cc\	-ca-
.	.	.	.	2A/	-lis	2a\)	.	.	.
=52-	=52-	=52-	=52-	=52-	=52-	=52-	=52-	=52-	=52-
!LO:TX:t=P:problem:kreska pseudotaktowa	!	!	!	!	!	!	!	!	!
!LO:TX:b:i:t=à 5 Vocib(us)\n2. Tenorib(us).	!	!	!	!	!	!	!	!	!
0r	.	1r	.	2B-/	p(ec)-	2g\	-c(a)-	2dd\	.
.	.	.	.	2d\	-c(a)-	2f\	-ta	1ff\	-ta
!	!	!	!	!	!	!LO:TX:t=P:problem:kreska pseudotaktowa	!	!	!
.	.	2r	.	2c\	-ta	1g\	-mun-	.	.
.	.	2c\	Qui	2c\	mun-	.	.	2ee\	mun-
=53-	=53-	=53-	=53-	=53-	=53-	=53-	=53-	=53-	=53-
!LO:LB:g=original	!	!	!	!LO:TX:t=P:problem:kreska pseudotaktowa	!	!	!	!LO:TX:t=P:problem:kreska pseudotaktowa	!
2r	.	2c/	tol-	1F/	-di	2a\	-di	0ff\	-di
*	*ij	*	*	*	*	*	*	*	*
2F\	Qui	2A/	-lis	.	.	4r	.	.	.
*	*	*	*	*	*ij	*	*ij	*	*
.	.	.	.	.	.	4a\	Qui	.	.
2F\	tol-	2c\	pec-	2r	.	2a\	tol-	.	.
!	!	!LO:TX:t=P:problem:kreska pseudotaktowa	!	!	!	!	!	!	!
2D/	-lis	2d\	.	2f\	Qui	2f\	.	.	.
=54-	=54-	=54-	=54-	=54-	=54-	=54-	=54-	=54-	=54-
2E/	p(ec)-	2c\	-ca-	2e\	tol-	2g\	-lis	0r	.
!LO:TX:t=P:problem:kreska pseudotaktowa	!	!	!	!	!	!	!	!	!
2G\	.	2B-/	-ta	2d\	.	2b-\	p(ec)-	.	.
2F\	-c(a)-	2.c/	mun-	2f\	-lis	2a\	.	.	.
!	!	!	!	!LO:TX:t=P:problem:kreska pseudotaktowa	!	!	!	!	!
2E/	-ta	.	.	2c\	p(ec)-	2.g\	-c(a)-	.	.
.	.	8B-/L	.	.	.	.	.	.	.
!	!	!LO:TX:t=P:problem:kreska pseudotaktowa	!	!	!	!	!	!	!
.	.	8A/J	.	.	.	.	.	.	.
=55-	=55-	=55-	=55-	=55-	=55-	=55-	=55-	=55-	=55-
!	!	!	!	!	!	!	!	!LO:TX:t=P:problem:kreska pseudotaktowa	!
1D/	mun-	4B-/	.	2.d\	-c(a)-	.	.	1r	.
.	.	2A/	.	.	.	4f\	.	.	.
.	.	.	.	.	.	1f\	-ta	.	.
.	.	8G/L	.	8c/L	.	.	.	.	.
.	.	8F/J	.	8B-/J	.	.	.	.	.
!LO:TX:t=P:problem:cezura na 1. linii	!	!	!	!	!	!	!	!	!
2C,</	-di	1G/	.	2c\	.	.	.	2r	.
*	*Xij	*	*	*	*	*	*	*	*
2C/	pec-	.	.	2c\	-ta	2e\	mun-	2cc\	qui
=56-	=56-	=56-	=56-	=56-	=56-	=56-	=56-	=56-	=56-
!LO:TX:t=P:problem:kreska pseudotaktowa	!	!LO:TX:t=P:problem:cezura na 1. linii	!	!	!	!LO:TX:t=P:problem:kreska pseudotaktowa	!	!	!
1F\	-ca-	2F,</	-di	4A/	mun-	1f\	-di	2cc\	tol-
*	*	*	*	*	*	*	*Xij	*	*
.	.	.	.	4B-/	.	.	.	.	.
.	.	2f\	qui	4c/	.	.	.	2a/	-lis
!	!	!	!	!LO:TX:t=P:problem:kreska pseudotaktowa	!	!	!	!	!
.	.	.	.	4A/	.	.	.	.	.
!LO:TX:t=P:problem:cezura na 1. linii	!	!	!	!	!	!	!	!	!
1BB-/,<	-ta	2f\	tol-	1d\	.	2r	.	2b-\	pec-
!	!	!LO:TX:t=P:problem:kreska pseudotaktowa	!	!	!	!	!	!	!
.	.	2d\	-lis	.	.	2g\	qui	2dd\	ca-
=57-	=57-	=57-	=57-	=57-	=57-	=57-	=57-	=57-	=57-
1C/	mun-	2e\	pec-	2G/	-di	2g\	tol-	2cc,<\	-ta
!	!	!	!	!	!	!	!	!LO:TX:t=P:problem:kreska pseudotaktowa	!
*	*	*	*	*	*Xij	*	*	*	*ij
.	.	1g\	.	4r	.	2e\	-lis	2cc\	pec-
.	.	.	.	4c/	qui	.	.	.	.
!LO:TX:t=P:problem:kreska pseudotaktowa	!	!	!	!	!	!	!	!	!
1F\	-di	.	.	2c/	tol-	2f\	p(ec)-	4a/	-ca-
.	.	.	.	.	.	.	.	4b-/	.
.	.	1f\	-ca-	2A/	-lis	2a\	-c(a)-	4cc/	.
.	.	.	.	.	.	.	.	4a/	.
=58-	=58-	=58-	=58-	=58-	=58-	=58-	=58-	=58-	=58-
1r	.	.	.	2B-/	p(ec)-	0g\	-ta	2dd\	.
.	.	2e\	-ta	2c/	-c(a)-	.	.	1cc\,	-ta
*	*	*	*	*	*	*	*	*	*Xij
!	!	!	!	!LO:TX:t=P:problem:kreska pseudotaktowa	!	!	!	!	!
2r	.	1d\	mun-	1G/	-ta	.	.	.	.
2G\	pec-	.	.	.	.	.	.	2b-\	mun-
=59-	=59-	=59-	=59-	=59-	=59-	=59-	=59-	=59-	=59-
!	!	!	!	!	!	!	!	!LO:TX:t=P:problem:kreska pseudotaktowa	!
2A\	.	4c/	.	2.c/	mun-	1e\	mun-	00cc\	-di.
.	.	4B-/	.	.	.	.	.	.	.
2.c\	-ca-	4A/	.	.	.	.	.	.	.
.	.	4G/	.	4B-/	.	.	.	.	.
!	!	!	!	!	!	!LO:TX:t=P:problem:kreska pseudotaktowa	!	!	!
.	.	2F/	.	4A/	.	0a\	-di	.	.
4B-\	.	.	.	4G/	.	.	.	.	.
4A\	.	1f\	.	2F/	.	.	.	.	.
!LO:TX:t=P:problem:kreska pseudotaktowa	!	!	!	!	!	!	!	!	!
4G\	.	.	.	.	.	.	.	.	.
=60-	=60-	=60-	=60-	=60-	=60-	=60-	=60-	=60-	=60-
2F\	.	.	.	1c\	.	.	.	.	.
2.A\	.	2e\	.	.	.	.	.	.	.
!	!	!	!	!LO:TX:t=P:problem:kreska pseudotaktowa	!	!LO:LB:g=original	!	!	!
.	.	2.f\	.	1F/	-di	2r	.	.	.
4G\	.	.	.	.	.	.	.	.	.
2.F\	.	.	.	.	.	2c/	Do-	.	.
.	.	4g\	.	.	.	.	.	.	.
=61-	=61-	=61-	=61-	=61-	=61-	=61-	=61-	=61-	=61-
.	.	2a\	.	1r	.	2c/	-na	2r	.
4E/	.	.	.	.	.	.	.	.	.
!LO:TX:t=P:problem:kreska pseudotaktowa	!	!	!	!	!	!	!	!	!
2C/	-ta	2g\	.	.	.	2e/	.	1cc\	do-
!	!	!LO:TX:t=P:problem:kreska pseudotaktowa	!	!	!	!	!	!	!
2.D/	mun-	1f\	-di,	2rA	.	2d/	no-	.	.
.	.	.	.	2F/	do-	2d/	-bis	2b-\	-na
4E/	.	.	.	.	.	.	.	.	.
=62-	=62-	=62-	=62-	=62-	=62-	=62-	=62-	=62-	=62-
!	!	!LO:LB:g=original	!	!	!	!	!	!	!
1F\	.	2r	.	2F/	-na	2c/	.	2a/	no-
!	!	!	!	!LO:SIC:v:custos:G	!	!	!	!	!
.	.	2c\	do-	2A/	no-	1f\	pa-	2f/	.
!LO:TX:t=P:problem:kreska pseudotaktowa	!	!	!	!LO:LB:g=original	!	!	!	!	!
1C/	-di	2c\	-na	2G/	-bis	.	.	1g/	-bis
.	.	2e\	.	2G/	pa-	2e\	.	.	.
=63-	=63-	=63-	=63-	=63-	=63-	=63-	=63-	=63-	=63-
!	!	!	!	!	!	!LO:TX:t=P:problem:kreska pseudotaktowa	!	!	!
2r	.	1d\	no-	2.F/	.	0f\	-cem	1.a/	pa-
2F\	do-	.	.	.	.	.	.	.	.
.	.	.	.	4G/	.	.	.	.	.
!	!	!LO:TX:t=P:problem:kreska pseudotaktowa	!	!	!	!	!	!	!
2F\	-na	1c\	-bis	4A/	.	.	.	.	.
.	.	.	.	4B-/	.	.	.	.	.
!LO:TX:t=P:problem:kreska pseudotaktowa	!	!	!	!	!	!	!	!	!
2A\	no-	.	.	1c\	.	.	.	4g/	.
.	.	.	.	.	.	.	.	4f/	.
=64-	=64-	=64-	=64-	=64-	=64-	=64-	=64-	=64-	=64-
!	!	!	!	!	!	!LO:TX:t=P:problem:kreska pseudotaktowa	!	!	!
2G\	-bis	4d\	pa-	.	.	1r	.	1g/	.
.	.	4c\	.	.	.	.	.	.	.
2G\	pa-	4d\	.	2B-/	.	.	.	.	.
.	.	4e\	.	.	.	.	.	.	.
!	!	!LO:TX:t=P:problem:kreska pseudotaktowa	!	!	!	!	!	!LO:TX:t=P:problem:kreska pseudotaktowa	!
2.F\	.	1f\	-cem	1c\	.	2r	.	1a/	-cem
*	*	*	*	*	*	*	*ij	*	*
.	.	.	.	.	.	2c/	Do-	.	.
4G\	.	.	.	.	.	.	.	.	.
=65-	=65-	=65-	=65-	=65-	=65-	=65-	=65-	=65-	=65-
!	!	!	!	!LO:TX:t=P:problem:kreska pseudotaktowa	!	!	!	!	!
2A\	.	2r	.	0F/	-cem.	2c/	-na	0r	.
1B-\	.	2f\	do-	.	.	1d/	no-	.	.
.	.	2f\	-na	.	.	.	.	.	.
!LO:TX:t=P:problem:kreska pseudotaktowa	!	!	!	!	!	!	!	!	!
2A\	.	2a\	.	.	.	2c/	-bis	.	.
=66-	=66-	=66-	=66-	=66-	=66-	=66-	=66-	=66-	=66-
!	!	!	!	!	!	!	!	!LO:TX:t=P:problem:kreska pseudotaktowa	!
!	!	!	!	!	!	!	!	!LO:SIC:v:custos:f	!
2B-\	.	1g\	no-	0r	.	2d/	pa-	1r	.
2c\	.	.	.	.	.	2e\	.	.	.
!	!	!	!	!	!	!	!	!LO:LB:g=original	!
0F\	.	1.a\	-bis	.	.	2.f\	.	2r	.
.	.	.	.	.	.	.	.	2f/	do-
.	.	.	.	.	.	8e/L	.	.	.
.	.	.	.	.	.	8d/J	.	.	.
=67-	=67-	=67-	=67-	=67-	=67-	=67-	=67-	=67-	=67-
!	!	!	!	!	!	!LO:TX:t=P:problem:kreska pseudotaktowa	!	!	!
.	.	.	.	2r	.	1c/	-cem	2f/	-na
*	*	*	*	*	*	*	*Xij	*	*
.	.	4g\	pa-	2c\	do-	.	.	2a/	no-
!	!	!LO:TX:t=P:problem:kreska pseudotaktowa	!	!	!	!	!	!	!
.	.	4f\	.	.	.	.	.	.	.
!LO:TX:t=P:problem:kreska pseudotaktowa	!	!	!	!	!	!	!	!	!
1C/	-cem	4e\	.	2c\	-na	2r	.	2g/	-bis
.	.	4f\	.	.	.	.	.	.	.
.	.	2.g\	.	2e\	no-	2c/	do-	1cc\	pa-
=68-	=68-	=68-	=68-	=68-	=68-	=68-	=68-	=68-	=68-
!LO:LB:g=original	!	!	!	!LO:TX:t=P:problem:kreska pseudotaktowa	!	!	!	!	!
1r	.	.	.	1d\	-bis	1f\	-na	.	.
.	.	4f\	.	.	.	.	.	.	.
.	.	1f\	.	.	.	.	.	2b-\	.
!	!	!	!	!	!	!	!	!LO:TX:t=P:problem:kreska pseudotaktowa	!
1C/	do-	.	.	2.c/	pa-	1g\	no-	0cc\	-cem
.	.	2e\	.	.	.	.	.	.	.
.	.	.	.	4B-/	.	.	.	.	.
=69-	=69-	=69-	=69-	=69-	=69-	=69-	=69-	=69-	=69-
!LO:TX:t=P:problem:kreska pseudotaktowa	!	!	!	!	!	!LO:TX:t=P:problem:kreska pseudotaktowa	!	!	!
1F\	-na	2.f\	.	4A/	.	1a\	-bis	.	.
.	.	.	.	4G/	.	.	.	.	.
.	.	.	.	1c\	.	.	.	.	.
.	.	4e\	.	.	.	.	.	.	.
*	*	*lig	*	*	*	*	*	*	*ij
1G\	no-	1d\	.	.	.	1.g\	pa-	1rff	.
.	.	.	.	4B-/	.	.	.	.	.
!	!	!	!	!LO:TX:t=P:problem:kreska pseudotaktowa	!	!	!	!	!
.	.	.	.	4A/	.	.	.	.	.
=70-	=70-	=70-	=70-	=70-	=70-	=70-	=70-	=70-	=70-
2E/	-bis	1c\	.	2G/	.	.	.	2r	.
2.F/	pa-	.	.	2A/	.	4f\	.	2cc\	do-
.	.	.	.	.	.	4e\	.	.	.
*	*	*Xlig	*	*	*	*	*	*	*
!	!	!LO:TX:t=P:problem:cezura na 2. linii	!	!	!	!	!	!	!
.	.	2A,</	-cem	2F/	.	2a\	.	2cc\	-na
4E/	.	.	.	.	.	.	.	.	.
!LO:TX:t=P:problem:kreska pseudotaktowa	!	!	!	!	!	!LO:TX:t=P:problem:kreska pseudotaktowa	!	!	!
*	*	*	*ij	*	*	*	*	*	*
2C/	.	2c\	do-	4G/	.	2g\	-cem	2ee\	no-
.	.	.	.	4A/	.	.	.	.	.
=71-	=71-	=71-	=71-	=71-	=71-	=71-	=71-	=71-	=71-
2G\	.	2d\	-na	4B-/	.	1r	.	2dd\	-bis
.	.	.	.	4c/	.	.	.	.	.
4D/	.	1f\	no-	4d/	.	.	.	2dd\	pa-
4E/	.	.	.	8c/L	.	.	.	.	.
!	!	!	!	!LO:TX:t=P:problem:kreska pseudotaktowa	!	!	!	!	!
.	.	.	.	8B-/J	.	.	.	.	.
!	!	!	!	!	!	!	!	!LO:TX:t=P:problem:kreska pseudotaktowa	!
4F\	.	.	.	4A/	.	2r	.	0cc\	-cem
4G\	.	.	.	4B-/	.	.	.	.	.
!	!	!	!	!	!	!LO:TX:t=P:problem:kreska pseudotaktowa	!	!	!
2.A\	.	2e\	-bis	4c/	.	2a\	do-	.	.
.	.	.	.	4d/	.	.	.	.	.
=72-	=72-	=72-	=72-	=72-	=72-	=72-	=72-	=72-	=72-
.	.	1c\	pa-	4e\	.	2a\	-na	.	.
4B-\	.	.	.	4d\	.	.	.	.	.
!LO:TX:t=P:problem:kreska pseudotaktowa	!	!	!	!	!	!	!	!	!
2c\	.	.	.	4e\	.	2g\	no-	.	.
.	.	.	.	4f\	.	.	.	.	.
!	!	!LO:TX:t=P:problem:kreska pseudotaktowa	!	!	!	!	!	!	!
2G\	.	1d\	-cem	2g\	.	2.b-\	-bis	2r	.
*	*	*	*Xij	*	*	*	*	*	*
!	!	!	!	!LO:TX:t=P:problem:kreska pseudotaktowa	!	!	!	!	!
2.B-\	.	.	.	2f\	.	.	.	1b-\	do-
.	.	.	.	.	.	8a\L	.	.	.
.	.	.	.	.	.	8g\J	.	.	.
=73-	=73-	=73-	=73-	=73-	=73-	=73-	=73-	=73-	=73-
.	.	2r	.	2.d\	.	2f\	pa-	.	.
4A\	.	.	.	.	.	.	.	.	.
!LO:TX:t=P:problem:kreska pseudotaktowa	!	!	!	!	!	!	!	!	!
2F\	.	2f\	do-	.	.	2.a\	.	2a/	-na
.	.	.	.	4c/	.	.	.	.	.
2.G\	.	2d\	-na	2B-/	.	.	.	1b-\	no-
.	.	.	.	.	.	4g\	.	.	.
.	.	2B-/	no-	2.d\	.	2g\	.	.	.
4F/	.	.	.	.	.	.	.	.	.
=74-	=74-	=74-	=74-	=74-	=74-	=74-	=74-	=74-	=74-
2D/	.	2.d\	-bis	.	.	2.f\	.	1.a/	-bis
.	.	.	.	4c/	.	.	.	.	.
2.F/	.	.	.	2A/	.	.	.	.	.
.	.	4c/	.	.	.	8e/L	.	.	.
.	.	.	.	.	.	8d/J	.	.	.
.	.	2A/	pa-	2.c/	.	2c/	.	.	.
4E/	.	.	.	.	.	.	.	.	.
2C/	.	2.c/	.	.	.	2.e-X/	.	4g/	.
.	.	.	.	4B-/	.	.	.	4f/	.
=75-	=75-	=75-	=75-	=75-	=75-	=75-	=75-	=75-	=75-
2.E-X/	.	.	.	2G/	.	.	.	1g/	pa-
.	.	4B-/	.	.	.	4d/	.	.	.
.	.	2G/	.	2.B-/	.	4B-/	.	.	.
!	!	!	!	!	!	!LO:TX:t=P:problem:kreska pseudotaktowa	!	!	!
!LO:TX:t=P:problem:kreska pseudotaktowa	!	!	!	!	!	!LO:SIC:v:custos:d	!	!	!
4D/	.	.	.	.	.	4c/	.	.	.
!	!	!LO:TX:t=P:problem:kreska pseudotaktowa	!	!	!	!LO:LB:g=original	!	!LO:TX:t=P:problem:kreska pseudotaktowa	!
2BB-/	.	1B-/	-cem	.	.	4d/	.	1f/	-cem
*	*	*	*	*	*	*	*	*	*Xij
.	.	.	.	4A/	.	4eny/	.	.	.
2D/	.	.	.	2F/	.	4f/	.	.	.
.	.	.	.	.	.	8e/L	.	.	.
.	.	.	.	.	.	8d/J	.	.	.
=76-	=76-	=76-	=76-	=76-	=76-	=76-	=76-	=76-	=76-
!	!	!LO:PB:g=original	!	!	!	!	!	!	!
2C/	.	2c\	pa-	0G/	.	2e\	.	1rff	.
2BB-/	.	2d\	.	.	.	1f\	.	.	.
!LO:TX:t=P:problem:kreska pseudotaktowa	!	!	!	!	!	!	!	!	!
1C/	-cem.	2.c/	.	.	.	.	.	2r	.
.	.	.	.	.	.	2e\	.	1cc\	Do-
.	.	4B-/	.	.	.	.	.	.	.
=77-	=77-	=77-	=77-	=77-	=77-	=77-	=77-	=77-	=77-
!	!	!	!	!LO:TX:t=P:problem:kreska pseudotaktowa	!	!	!	!	!
*	*	*	*	*	*	*lig	*	*	*
2r	.	4A/	.	1F/	-cem	1f\	.	.	.
.	.	4G/	.	.	.	.	.	.	.
!LO:TX:t=P:problem:kreska pseudotaktowa	!	!	!	!	!	!	!	!	!
2c\	Do-	2A/	.	.	.	.	.	2a/	-na
!	!	!	!	!LO:TX:t=P:problem:kreska pseudotaktowa	!	!	!	!	!
!	!	!	!	!LO:PB:g=original	!	!	!	!	!
2G\	-na	2B-/	.	1r	.	1g\	.	2.dd\	no-
1B-\	.	2G/	-cem.	.	.	.	.	.	.
.	.	.	.	.	.	.	.	4cc\	.
!	!	!LO:TX:t=P:problem:kreska pseudotaktowa	!	!	!	!	!	!	!
*	*	*	*	*	*	*Xlig	*	*	*
=78-	=78-	=78-	=78-	=78-	=78-	=78-	=78-	=78-	=78-
!	!	!	!	!	!	!LO:TX:t=P:problem:cezura na 2. linii	!	!	!
.	.	2r	.	1f\	Do-	2d,</	-cem	2b-/	-bis
!LO:TX:t=P:problem:kreska pseudotaktowa	!	!	!	!	!	!	!	!LO:TX:t=P:problem:kreska pseudotaktowa	!
2F\	.	2d\	do-	.	.	1a\	do-	2a/	.
*	*	*	*	*	*	*	*	*lig	*
2.G\	no-	2B-/	-na	2d\	-na	.	.	1b-\	pa-
.	.	1d\	no-	2B-/	.	2g\	na	.	.
4F\	.	.	.	.	.	.	.	.	.
=79-	=79-	=79-	=79-	=79-	=79-	=79-	=79-	=79-	=79-
!LO:TX:t=P:problem:interpretacja niepewna	!	!	!	!	!	!LO:TX:t=P:problem:kreska pseudotaktowa	!	!	!
2D/	.	.	.	2.d\	no-	1f\	no-	1.a/	.
!	!	!LO:TX:t=P:problem:kreska pseudotaktowa	!	!	!	!	!	!	!
2C/	.	2A/	.	.	.	.	.	.	.
.	.	.	.	4c/	.	.	.	.	.
1F\	-bis	2.c/	-bis	2A/	-bis	2c,</	-bis	.	.
!	!	!	!	!	!	!LO:TX:t=P:problem:cezura na 2. linii	!	!	!
*	*	*	*	*	*	*	*	*Xlig	*
.	.	.	.	2.c/	pa-	2.e-X/	pa-	4g/	.
.	.	4B-/	.	.	.	.	.	4f/	.
=80-	=80-	=80-	=80-	=80-	=80-	=80-	=80-	=80-	=80-
2.E-X/	pa-	2G/	pa-	.	.	.	.	1g/	.
.	.	.	.	4B-/	.	4d/	.	.	.
.	.	2.B-/	.	2G/	.	4B-/	.	.	.
!LO:TX:t=P:problem:kreska pseudotaktowa	!	!	!	!	!	!LO:TX:t=P:problem:kreska pseudotaktowa	!	!	!
4D/	.	.	.	.	.	4c/	.	.	.
!	!	!	!	!	!	!	!	!LO:TX:t=P:problem:kreska pseudotaktowa	!
2BB-/	.	.	.	1B-/	.	4d/	.	1f/	-cem
.	.	4A/	.	.	.	4eny/	.	.	.
!	!	!LO:TX:t=P:problem:kreska pseudotaktowa	!	!	!	!	!	!	!
2D/	.	2F/	.	.	.	4f/	.	.	.
.	.	.	.	.	.	8e/L	.	.	.
!	!	!	!	!	!	!LO:TX:t=P:problem:kreska pseudotaktowa	!	!	!
.	.	.	.	.	.	8d/J	.	.	.
=81-	=81-	=81-	=81-	=81-	=81-	=81-	=81-	=81-	=81-
2C/	.	0G/	.	2c\	.	2e\	.	1rff	.
2BB-/	.	.	.	2d\	.	1f\	.	.	.
!LO:TX:t=P:problem:kreska pseudotaktowa	!	!	!	!	!	!	!	!	!
1C/	-cem	.	.	1c\	.	.	.	2r	.
!	!	!	!	!	!	!LO:TX:t=P:problem:kreska pseudotaktowa	!	!	!
*	*ij	*	*	*	*	*	*	*	*ij
.	.	.	.	.	.	2e\	.	1cc\	Do-
=82-	=82-	=82-	=82-	=82-	=82-	=82-	=82-	=82-	=82-
2r	.	2A/	.	[0F/;l	-cem	[0f\;l	-cem.	.	.
2F\	Do-	2.c/	.	.	.	.	.	1a/	-na
2D/	-na	.	.	.	.	.	.	.	.
.	.	4B-/	.	.	.	.	.	.	.
!LO:TX:t=P:problem:kreska pseudotaktowa	!	!	!	!	!	!	!	!	!
2BB-/	no-	1B-/	.	.	.	.	.	1dd\	no-
=83-	=83-	=83-	=83-	=83-	=83-	=83-	=83-	=83-	=83-
1F\	-bis	.	.	0F/_	.	0f\_	.	.	.
.	.	2A/	.	.	.	.	.	2cc\	-bis
1BB-/	pa-	1d\	.	.	.	.	.	1b-\	pa-
=84-	=84-	=84-	=84-	=84-	=84-	=84-	=84-	=84-	=84-
!	!	!	!	!	!	!LO:TX:b:i:t=O. ad M.D.Gm	!	!	!
0F\;	-cem	0c\;	-cem.	0F/]	.	0f\]	.	0a/;	-cem
*	*Xij	*	*	*	*	*	*	*	*Xij
==	==	==	==	==	==	==	==	==	==
*-	*-	*-	*-	*-	*-	*-	*-	*-	*-
!!!RDF**kern: > = above
!!!RDF**kern: < = below
!!!RDF**kern: l = terminal long
!!!system-decoration: [(s1,s2,s3,s4,s5)]
!!!ENC:Kamil Watkowski
!!!END:2021-03-02
!!!EED: Andrzej Borzym
!!!EST: 2021-03-17
